X: 1
T:Sot terne
G:Kazimodal
R:Bourr\'ee 2 temps
C:Ronan Keryell, arrangement http://kazimodal.trad.org
Q:C2=145
P:(AAB)3AAC
M:4/4
%%MIDI gchord c2ffccf2
%%MIDI chordprog 105
%%MIDI chordvol 80
%%MIDI bassprog 36
%%MIDI bassvol 127
%%MIDI program 69
K:EPhr
P:A
|: "Em"E>F GA BG EB |1 "Dm"A>G FD E>F "Em"ED :|2 \
	"F"AG FD "Em"E>E E2 ||
P:B
K:Dm
|: "Bb"d>B Fd "C"ec Ge | "Dm"f>e dc dc AF |\
	 "Gm"BA Gd "Am"c>B AG | "Bb"B>A GF "C"G>G- G>G :|
P:C
K:Dm
|: "Bb"d>B Fd "C"ec Ge | "Dm"f>e dc dc AF | "Gm"BA Gd "Am"c>B AG |1\
	 "Bb"B>A GF "C"G>G- G>G :|2 "Bb"B>A GF "C"G2 Z>A ||

